images/class_icons/brewmaster.svg

<svg height="400" viewBox="0 0 400 400" width="400" xmlns="http://www.w3.org/2000/svg"><path d="m82.62 3.009c-6.373.416-11.693.816-11.822.889-1.985 1.12-14.375 34.605-14.375 38.85 0 2.797 7.064 3.584 32.264 3.594l15.639.006 4.243-21.345c2.333-11.739 4.011-21.575 3.729-21.857-.861-.861-17.417-.937-29.678-.137m40.826.266c-.919 2.753-7.584 37.671-7.581 39.712.005 2.964 9.92 3.89 31.707 2.959 19.03-.812 17.31.864 18.107-17.637.348-8.089.89-17.314 1.203-20.5l.57-5.794h-21.793c-16.538 0-21.894.304-22.213 1.26m54.45 3.526c-.89 6.749-2.531 29.048-2.558 34.761l-.023 4.786h24.779 24.779l-.669-9.824c-.368-5.403-1.09-14.584-1.604-20.403-.515-5.819-.936-11.373-.937-12.343 0-1.624-1.7-1.763-21.568-1.763h-21.568zm55.229 7.053c.36 6.511.93 16.216 1.268 21.566l.614 9.727 13.731.736c13.101.703 34.046.132 35.136-.958.435-.435-5.982-35.893-7.447-41.147-.449-1.609-2.386-1.763-22.224-1.763h-21.731zm55.792-11.186c-2.236.637-2.425-1.238 2.267 22.521 2.217 11.225 4.03 20.577 4.03 20.784 0 .627 29.308.418 39.14-.28 11.035-.783 10.675.497 4.773-16.978-5.884-17.424-8.067-22.253-10.852-24.011-2.347-1.481-35.317-3.186-39.358-2.036m-237.02 55.015c-.404 1.174-3.532 13.891-4.957 20.151l-.631 2.771h153.168c132.54 0 153.168-.196 153.168-1.449 0-1.455-2.272-11.896-4.124-18.954l-.992-3.779h-147.599c-117.178 0-147.69.26-148.033 1.26m-7.981 35.768c-2.997 9.565-8.221 53.468-9.764 82.051-2.005 37.169 3.678 113.947 9.663 130.543.348.965 6.794 1.26 27.583 1.26h27.128l-.815-3.779c-7.11-32.925-7.321-147.055-.382-206.045l.681-5.793h-26.771c-24.614 0-26.815.142-27.323 1.763m64.458.504c-6.869 32.442-6.877 179.428-.011 211.083l.492 2.267h27.159 27.16l-.731-3.275c-.957-4.292-.952-201.331.006-207.556l.737-4.786h-27.166-27.165zm64.25 4.534c-1.086 8.834-1.093 195.431-.007 203.022l.828 5.794h26.524 26.525l.803-13.854c1.043-18.011 1.043-169.898 0-187.909l-.803-13.854h-26.517-26.517zm64.918 2.519c.971 12.143.971 184.833 0 196.977l-.744 9.32h27.193c14.956 0 27.193-.184 27.193-.408 0-.225.66-6.232 1.466-13.35 5.602-49.455 5.602-138.646 0-188.101-.806-7.118-1.466-13.126-1.466-13.35 0-.225-12.237-.408-27.193-.408h-27.193zm64.728-6.55c.002 1.524.667 9.572 1.478 17.885 3.241 33.236 4.94 105.378 3.065 130.148-.287 3.784-.994 15.04-1.571 25.015-1.023 17.663-2.505 32.945-3.64 37.532l-.561 2.267h27.23 27.23l1.135-5.29c12.259-57.135 12.026-146.854-.537-207.053l-.683-3.274h-26.575-26.574zm-252.148 223.657c-3.313.346-3.714.669-3.229 2.601.304 1.213 1.59 6.74 2.858 12.281l2.304 10.076 147.677.255 147.676.256 2.751-11.843c1.512-6.513 2.966-12.409 3.23-13.101.453-1.192-292.047-1.699-303.267-.525m8.064 36.197c-2.54.714-2.216 3.353 1.889 15.359 6.785 19.846 9.553 24.88 14.096 25.63 9.704 1.603 38.842.77 38.274-1.094-.295-.97-2.101-10.076-4.013-20.235s-3.778-18.773-4.147-19.143c-.777-.779-43.462-1.257-46.099-.517m57.036 1.54c.347 1.284 2.246 10.482 4.22 20.441 1.973 9.958 3.828 18.346 4.12 18.639.292.294 10.288.673 22.214.842l21.683.308-.568-4.842c-.312-2.663-.856-11.46-1.207-19.549-.843-19.409 2.051-17.477-26.738-17.854l-24.355-.319zm60.093 2.188c0 5.404 1.802 28.995 2.609 34.151l.591 3.779h21.574c11.865 0 21.576-.34 21.58-.756s.678-8.917 1.498-18.892c.82-9.974 1.497-19.156 1.505-20.403l.013-2.267h-24.685-24.685zm62.332-3.677c-2.943.453-2.733-.959-4.514 30.272l-.647 11.335 20.029-.014c11.016-.008 20.936-.26 22.044-.561 1.749-.475 2.553-3.271 6.081-21.145l4.066-20.598-22.202.151c-12.211.083-23.397.335-24.857.56m58.827-.034c-1.506.313-2.273 1.209-2.285 2.668-.01 1.208-1.595 10.131-3.523 19.829s-3.507 17.972-3.509 18.388c-.004.902 35.451.796 39.795-.119 4.157-.875 18.902-37.481 16.193-40.198-.811-.813-43.018-1.327-46.671-.568" fill-rule="evenodd"/></svg>

<svg id="svg" xmlns="http://www.w3.org/2000/svg" xmlns:xlink="http://www.w3.org/1999/xlink" width="400" height="400" viewBox="0, 0, 400,400"><g id="svgg"><path id="path0" d="M82.620 3.009 C 76.247 3.425,70.927 3.825,70.798 3.898 C 68.813 5.018,56.423 38.503,56.423 42.748 C 56.423 45.545,63.487 46.332,88.687 46.342 L 104.326 46.348 108.569 25.003 C 110.902 13.264,112.580 3.428,112.298 3.146 C 111.437 2.285,94.881 2.209,82.620 3.009 M123.446 3.275 C 122.527 6.028,115.862 40.946,115.865 42.987 C 115.870 45.951,125.785 46.877,147.572 45.946 C 166.602 45.134,164.882 46.810,165.679 28.309 C 166.027 20.220,166.569 10.995,166.882 7.809 L 167.452 2.015 145.659 2.015 C 129.121 2.015,123.765 2.319,123.446 3.275 M177.896 6.801 C 177.006 13.550,175.365 35.849,175.338 41.562 L 175.315 46.348 200.094 46.348 L 224.873 46.348 224.204 36.524 C 223.836 31.121,223.114 21.940,222.600 16.121 C 222.085 10.302,221.664 4.748,221.663 3.778 C 221.663 2.154,219.963 2.015,200.095 2.015 L 178.527 2.015 177.896 6.801 M233.125 13.854 C 233.485 20.365,234.055 30.070,234.393 35.420 L 235.007 45.147 248.738 45.883 C 261.839 46.586,282.784 46.015,283.874 44.925 C 284.309 44.490,277.892 9.032,276.427 3.778 C 275.978 2.169,274.041 2.015,254.203 2.015 L 232.472 2.015 233.125 13.854 M288.917 2.668 C 286.681 3.305,286.492 1.430,291.184 25.189 C 293.401 36.414,295.214 45.766,295.214 45.973 C 295.214 46.600,324.522 46.391,334.354 45.693 C 345.389 44.910,345.029 46.190,339.127 28.715 C 333.243 11.291,331.060 6.462,328.275 4.704 C 325.928 3.223,292.958 1.518,288.917 2.668 M51.897 57.683 C 51.493 58.857,48.365 71.574,46.940 77.834 L 46.309 80.605 199.477 80.605 C 332.017 80.605,352.645 80.409,352.645 79.156 C 352.645 77.701,350.373 67.260,348.521 60.202 L 347.529 56.423 199.930 56.423 C 82.752 56.423,52.240 56.683,51.897 57.683 M43.916 93.451 C 40.919 103.016,35.695 146.919,34.152 175.502 C 32.147 212.671,37.830 289.449,43.815 306.045 C 44.163 307.010,50.609 307.305,71.398 307.305 L 98.526 307.305 97.711 303.526 C 90.601 270.601,90.390 156.471,97.329 97.481 L 98.010 91.688 71.239 91.688 C 46.625 91.688,44.424 91.830,43.916 93.451 M108.374 93.955 C 101.505 126.397,101.497 273.383,108.363 305.038 L 108.855 307.305 136.014 307.305 L 163.174 307.305 162.443 304.030 C 161.486 299.738,161.491 102.699,162.449 96.474 L 163.186 91.688 136.020 91.688 L 108.855 91.688 108.374 93.955 M172.624 98.489 C 171.538 107.323,171.531 293.920,172.617 301.511 L 173.445 307.305 199.969 307.305 L 226.494 307.305 227.297 293.451 C 228.340 275.440,228.340 123.553,227.297 105.542 L 226.494 91.688 199.977 91.688 L 173.460 91.688 172.624 98.489 M237.542 101.008 C 238.513 113.151,238.513 285.841,237.542 297.985 L 236.798 307.305 263.991 307.305 C 278.947 307.305,291.184 307.121,291.184 306.897 C 291.184 306.672,291.844 300.665,292.650 293.547 C 298.252 244.092,298.252 154.901,292.650 105.446 C 291.844 98.328,291.184 92.320,291.184 92.096 C 291.184 91.871,278.947 91.688,263.991 91.688 L 236.798 91.688 237.542 101.008 M302.270 94.458 C 302.272 95.982,302.937 104.030,303.748 112.343 C 306.989 145.579,308.688 217.721,306.813 242.491 C 306.526 246.275,305.819 257.531,305.242 267.506 C 304.219 285.169,302.737 300.451,301.602 305.038 L 301.041 307.305 328.271 307.305 L 355.501 307.305 356.636 302.015 C 368.895 244.880,368.662 155.161,356.099 94.962 L 355.416 91.688 328.841 91.688 L 302.267 91.688 302.270 94.458 M50.122 318.115 C 46.809 318.461,46.408 318.784,46.893 320.716 C 47.197 321.929,48.483 327.456,49.751 332.997 L 52.055 343.073 199.732 343.328 L 347.408 343.584 350.159 331.741 C 351.671 325.228,353.125 319.332,353.389 318.640 C 353.842 317.448,61.342 316.941,50.122 318.115 M58.186 354.312 C 55.646 355.026,55.970 357.665,60.075 369.671 C 66.860 389.517,69.628 394.551,74.171 395.301 C 83.875 396.904,113.013 396.071,112.445 394.207 C 112.150 393.237,110.344 384.131,108.432 373.972 C 106.520 363.813,104.654 355.199,104.285 354.829 C 103.508 354.050,60.823 353.572,58.186 354.312 M115.222 355.852 C 115.569 357.136,117.468 366.334,119.442 376.293 C 121.415 386.251,123.270 394.639,123.562 394.932 C 123.854 395.226,133.850 395.605,145.776 395.774 L 167.459 396.082 166.891 391.240 C 166.579 388.577,166.035 379.780,165.684 371.691 C 164.841 352.282,167.735 354.214,138.946 353.837 L 114.591 353.518 115.222 355.852 M175.315 358.040 C 175.315 363.444,177.117 387.035,177.924 392.191 L 178.515 395.970 200.089 395.970 C 211.954 395.970,221.665 395.630,221.669 395.214 C 221.673 394.798,222.347 386.297,223.167 376.322 C 223.987 366.348,224.664 357.166,224.672 355.919 L 224.685 353.652 200.000 353.652 L 175.315 353.652 175.315 358.040 M237.647 354.363 C 234.704 354.816,234.914 353.404,233.133 384.635 L 232.486 395.970 252.515 395.956 C 263.531 395.948,273.451 395.696,274.559 395.395 C 276.308 394.920,277.112 392.124,280.640 374.250 L 284.706 353.652 262.504 353.803 C 250.293 353.886,239.107 354.138,237.647 354.363 M296.474 354.329 C 294.968 354.642,294.201 355.538,294.189 356.997 C 294.179 358.205,292.594 367.128,290.666 376.826 C 288.738 386.524,287.159 394.798,287.157 395.214 C 287.153 396.116,322.608 396.010,326.952 395.095 C 331.109 394.220,345.854 357.614,343.145 354.897 C 342.334 354.084,300.127 353.570,296.474 354.329 " stroke="none" fill="#000000" fill-rule="evenodd"></path></g></svg>
